!!! OTL: Berkowitz356
!!! Chapter: 1
!!! Section: III
!!! Page: 87
!!! Mode: 
!!! Encoder: DJB
**kern
*staff1
*I"Piano
=1-
*clefC3
*k[f#c#]
*D:
*M5/4
4d\
4.f#\
8g\
4a\
4b\
=2
4a\
4.f#\
8e\
4f#\
4A/
=3
4B/
4.d\
8e\
4f#\
4a\
=4
2f#\
2e\
8f#\L
8e\J
=5
4d\
4.f#\
8g\
4a\
4b\
=6
4a\
4.f#\
8d\
4e\
4A/
=7
4B/
4.d\
8e\
4f#\
4e\
=8
!!linebreak:original
4d\
4B/
4A/
2d\
==
*-
